public/images/icon-back.svg

<svg xmlns="http://www.w3.org/2000/svg" width="27" height="16" viewBox="0 0 27 16" fill="none">
  <path fill-rule="evenodd" clip-rule="evenodd" d="M11.7564 14.9693C11.7564 15.7893 10.8236 16.2608 10.1633 15.7744L0.682562 8.79067C0.140005 8.39101 0.140005 7.58004 0.682562 7.18038L10.1633 0.196655C10.8236 -0.289721 11.7564 0.181718 11.7564 1.0018V3.34944C11.7564 3.90173 12.2041 4.34944 12.7564 4.34944H26C26.5523 4.34944 27 4.79716 27 5.34944V10.0622C27 10.6145 26.5523 11.0622 26 11.0622H12.7564C12.2041 11.0622 11.7564 11.5099 11.7564 12.0622V14.9693Z" fill="black"/>
</svg>

<svg xmlns="http://www.w3.org/2000/svg" width="27" height="16" viewBox="0 0 27 16" fill="none"><path fill-rule="evenodd" clip-rule="evenodd" d="M11.756 14.97a1 1 0 0 1-1.593.804L.683 8.791a1 1 0 0 1 0-1.61l9.48-6.984a1 1 0 0 1 1.593.805v2.347a1 1 0 0 0 1 1H26a1 1 0 0 1 1 1v4.713a1 1 0 0 1-1 1H12.756a1 1 0 0 0-1 1v2.907z" fill="#000"/></svg>
